X:70
T: Sanshi li mingshan ershi li shui
N: C0092
O: China,Shanxi, Hequ
S: I, 329, 1)]
N: Hier fehlen die Verzierungen. Die Notation wird als "nicht sehr
N: genau" bezeichnet.
R: Shange, Shanqu. Biaoda aiqing]
M: 2/4
L: 1/16
K: Bb
c2c2g4- | g8 |
f2gfe2dc | b2g2c2fb | g8 |
c2c2g4- | g8 |
f2gfe2dc | b2g2b2g2 | c8

@@@ Tune index: 6071
